X: 1
T: Din Tarrant's Polka #1 (the Lonesome Polka #1)
C:
%D:
R: polka
S: Fiddle Hell Online 2022-4-7 handout for Matt Cranitch workshop
Z: 2022 John Chambers <jc:trillian.mit.edu>
M: 2/4
L: 1/16
K: G
|:\
B2d2 d2e2 | d2B2 B2AB | d2dB A2AB | d2B2 G4 |\
B2d2 d2e2 | d2B2 B2AB | d2G2 B2AA | A2G2 G4 :|
|:\
d2g2 g4   | f2e2 e4   | e2d2 ddd2 | e2d2 B4 |\
d2g2 gag2 | f2e2 efge | d2B2 B2AA | A2G2 G4 :|
